symbols/web/download_for_offline/materialsymbolsrounded/download_for_offline_wght100grad200_48px.svg

<svg xmlns="http://www.w3.org/2000/svg" height="48" width="48"><path d="M23.05 23.25 19.1 19.2q-.25-.25-.575-.225-.325.025-.575.275-.3.3-.3.65 0 .35.3.6l4.85 4.85q.45.5 1.15.5t1.2-.5l4.95-4.9q.2-.2.175-.55-.025-.35-.225-.65-.3-.25-.675-.25-.375 0-.575.25l-4 4.05v-9.75q0-.3-.25-.55-.25-.25-.6-.25-.4 0-.65.25t-.25.6ZM15.8 33.1h16.5q.3 0 .55-.25.25-.25.25-.65 0-.35-.25-.6t-.6-.25h-16.5q-.35 0-.6.25t-.25.6q0 .4.25.65t.65.25Zm8.2 9.1q-3.75 0-7.075-1.425t-5.8-3.875q-2.475-2.45-3.9-5.8Q5.8 27.75 5.8 24q0-3.8 1.425-7.125t3.9-5.8Q13.6 8.6 16.925 7.2 20.25 5.8 24 5.8q3.8 0 7.125 1.4t5.8 3.875q2.475 2.475 3.875 5.8Q42.2 20.2 42.2 24q0 3.75-1.4 7.075t-3.875 5.8q-2.475 2.475-5.8 3.9Q27.8 42.2 24 42.2ZM24 24Zm0 16.45q6.85 0 11.65-4.8 4.8-4.8 4.8-11.65 0-6.85-4.8-11.65-4.8-4.8-11.65-4.8-6.85 0-11.65 4.8-4.8 4.8-4.8 11.65 0 6.85 4.8 11.65 4.8 4.8 11.65 4.8Z"/></svg>

<svg xmlns="http://www.w3.org/2000/svg" height="48" width="48"><path d="M23.05 23.25 19.1 19.2Q18.85 18.95 18.525 18.975Q18.2 19 17.95 19.25Q17.65 19.55 17.65 19.9Q17.65 20.25 17.95 20.5L22.8 25.35Q23.25 25.85 23.95 25.85Q24.65 25.85 25.15 25.35L30.1 20.45Q30.3 20.25 30.275 19.9Q30.25 19.55 30.05 19.25Q29.75 19 29.375 19Q29 19 28.8 19.25L24.8 23.3V13.55Q24.8 13.25 24.55 13Q24.3 12.75 23.95 12.75Q23.55 12.75 23.3 13Q23.05 13.25 23.05 13.6ZM15.8 33.1H32.3Q32.6 33.1 32.85 32.85Q33.1 32.6 33.1 32.2Q33.1 31.85 32.85 31.6Q32.6 31.35 32.25 31.35H15.75Q15.4 31.35 15.15 31.6Q14.9 31.85 14.9 32.2Q14.9 32.6 15.15 32.85Q15.4 33.1 15.8 33.1ZM24 42.2Q20.25 42.2 16.925 40.775Q13.6 39.35 11.125 36.9Q8.65 34.45 7.225 31.1Q5.8 27.75 5.8 24Q5.8 20.2 7.225 16.875Q8.65 13.55 11.125 11.075Q13.6 8.6 16.925 7.2Q20.25 5.8 24 5.8Q27.8 5.8 31.125 7.2Q34.45 8.6 36.925 11.075Q39.4 13.55 40.8 16.875Q42.2 20.2 42.2 24Q42.2 27.75 40.8 31.075Q39.4 34.4 36.925 36.875Q34.45 39.35 31.125 40.775Q27.8 42.2 24 42.2ZM24 24Q24 24 24 24Q24 24 24 24Q24 24 24 24Q24 24 24 24Q24 24 24 24Q24 24 24 24Q24 24 24 24Q24 24 24 24ZM24 40.45Q30.85 40.45 35.65 35.65Q40.45 30.85 40.45 24Q40.45 17.15 35.65 12.35Q30.85 7.55 24 7.55Q17.15 7.55 12.35 12.35Q7.55 17.15 7.55 24Q7.55 30.85 12.35 35.65Q17.15 40.45 24 40.45Z"/></svg>
